X:1
T:Jeszcze Polska nie zginęła
T:Jeszcze Polska nie zginęła
C:nieznany
Z:Józef Wybicki
%%score [ 1 2 3 4 ]
L:1/8
Q:1/4=110
M:3/4
K:F
V:1 treble nm="Sopran"
V:2 treble nm="Alt"
V:3 treble-8 nm="Tenor"
V:4 bass nm="Bass"
V:1
 A3/2 B/ c2 c2 | c3/2 c/ (dc) (BA) | G3/2 G/ c3 B | B2 A2 z2 | A3/2 B/ c2 c2 | c3/2 c/ (dc) (BA) | %6
w: Je- szcze Pol- ska|nie zgi- nę- * ła, _|kie- dy my ży-|je my.|Co nam ob- ca|prze- moc wzię- * ła _|
 G3/2 G/ c3 E | G2 F2 z2 |: G2 G3 B | (BA) A4 | B3/2 B/ B2 B d | d2 c4 | A c f3 e | (ed) d4 | %14
w: sza- blą od- bie-|rze my|Marsz, marsz Dą-|bro- * wski,|Z~zie- mi włos- kiej do|Pol- ski!|Za two- im prze-|wo- * dem|
 c3/2 c/ B3 E | G2 F2 z2 :| %16
w: złą- czym się z~na|ro- dem.|
V:2
 F3/2 F/ F2 E2 | F3/2 A/ F2 G2 | F3/2 F/ (EFG) G | G2 F2 z2 | F3/2 A/ F2 G2 | F3/2 F/ F2 G2 | %6
w: Je- szcze Pol- ska|nie zgi- nę- ła,|kie- dy my _ _ ży-|je my.|Co nam ob- ca|prze- moc wzię- ła|
 F3/2 F/ (EDC) C | C2 C2 z2 |: E2 (EFG) E | F2 F4 | F3/2 F/ F2 F B | (BA) A4 | A3 B c c | c2 B4 | %14
w: sza- blą od- * * bie-|rze my|Marsz, marsz _ _ Dą-|bro- wski,|Z~zie- mi włos- kiej do|Pol- * ski!|Za two- im prze-|wo- dem|
 c3/2 c/ G3 E | E2 C2 z2 :| %16
w: złą- czym się z~na|ro- dem.|
V:3
 c3/2 c/ c2 G2 | A3/2 c/ (fe) (dc) | c3/2 c/ G3 c | c2 c2 z2 | c3/2 c/ c2 G2 | A3/2 c/ fe dc | %6
w: Je- szcze Pol- ska|nie zgi- nę- * ła, _|kie- dy my ży-|je my.|Co nam ob- ca|prze- moc wzię- * ła _|
 c3/2 c/ c3 B | B2 A2 z2 |: c2 c3 c | (dc) c4 | d3/2 d/ d2 d f | f2 f4 | c c c3 f | f2 f4 | %14
w: sza- blą od- bie-|rze my|Marsz, marsz Dą-|bro- * wski,|Z~zie- mi włos- kiej do|Pol- ski!|Za two- im prze-|wo- dem|
 c3/2 c/ (fed) c | B2 A2 z2 :| %16
w: złą- czym się _ _ z~na|ro- dem.|
V:4
 F,3/2 G,/ A,2 C,2 | F,3/2 F,/ [A,,A,]2 [B,,B,]2 | [C,C]3/2 C,/ (C,D,E,) E, | F,2 F,2 z2 | %4
w: Je- szcze Pol- ska|nie zgi- nę- ła,|kie- dy my _ _ ży-|je my.|
 F,3/2 G,/ A,2 C,2 | F,3/2 F,/ [A,,A,]2 [B,,B,]2 | [C,C]3/2 C,/ C,3 C, | F,2 F,2 z2 |: C,2 C,3 C, | %9
w: Co nam ob- ca|prze- moc wzię- ła|sza- blą od- bie-|rze my|Marsz, marsz Dą-|
 F,2 F,4 | B,3/2 B,/ B,2 D B, | F,2 F,4 | F,3 G, A, A, | B,2 B,4 | C3/2 C/ C,3 C, | F,2 F,2 z2 :| %16
w: bro- wski,|Z~zie- mi włos- kiej do|Pol- ski!|Za two- im prze-|wo- dem|złą- czym się z~na|ro- dem.|

